packages/icons/src/components/Icon/assets/default-outline/hand.svg

<svg width="20" height="20" viewBox="0 0 20 20" fill="none" xmlns="http://www.w3.org/2000/svg">
<path d="M10.1094 9.48242V3.83789C10.1094 3.65149 9.95788 3.5 9.77148 3.5C9.58509 3.50001 9.43359 3.6515 9.43359 3.83789V4.86328L9.48535 8.95508C9.49044 9.36913 9.1592 9.70863 8.74512 9.71387C8.331 9.71903 7.99059 9.38777 7.98535 8.97363L7.93359 4.88281V4.87305C7.9335 4.68679 7.78293 4.53624 7.59668 4.53613C7.41034 4.53613 7.25888 4.68673 7.25879 4.87305V10C7.25879 10.4142 6.923 10.75 6.50879 10.75C6.09467 10.7499 5.75879 10.4141 5.75879 10V6.94434C5.75862 6.75821 5.60799 6.60763 5.42188 6.60742C5.23558 6.60742 5.08415 6.75808 5.08398 6.94434V12.5889C5.08398 14.7487 6.83529 16.5 8.99512 16.5H10.3877C11.1501 16.5 11.8817 16.1973 12.4209 15.6582L13.6172 14.4619C14.1563 13.9228 14.459 13.1911 14.459 12.4287V12.4277L14.4609 11.0303V11.0254C14.4636 10.716 14.5834 10.4098 14.8174 10.1758L14.8604 10.123C14.947 9.99203 14.9328 9.81363 14.8174 9.69824C14.6856 9.56654 14.4716 9.56654 14.3398 9.69824C13.9732 10.0649 13.7885 10.5458 13.7861 11.0264C13.7861 11.0391 13.7849 11.0519 13.7842 11.0645V12.0518C13.7843 12.0583 13.7852 12.0648 13.7852 12.0713C13.7852 12.4855 13.4494 12.8213 13.0352 12.8213H13.0342C12.6981 12.8215 12.3626 12.8932 12.0527 13.0352C11.8058 13.1483 11.5733 13.3066 11.3682 13.5117C11.0753 13.8044 10.6005 13.8046 10.3076 13.5117C10.015 13.2189 10.015 12.744 10.3076 12.4512C10.6408 12.118 11.0219 11.8572 11.4287 11.6709C11.7043 11.5447 11.9919 11.4543 12.2842 11.3965V4.87305C12.2841 4.68673 12.1326 4.53613 11.9463 4.53613C11.7832 4.53623 11.6475 4.65175 11.6162 4.80566L11.6094 4.87305V9.48242C11.6092 9.89638 11.2733 10.2322 10.8594 10.2324C10.4453 10.2324 10.1095 9.89651 10.1094 9.48242ZM13.7842 8.28125C14.4677 7.95335 15.3114 8.07127 15.8779 8.6377C16.5661 9.32583 16.5916 10.4218 15.96 11.1436L15.959 12.4297C15.9588 13.5897 15.498 14.7022 14.6777 15.5225L13.4814 16.7188C12.661 17.5391 11.5479 18 10.3877 18H8.99512C6.00686 18 3.58398 15.5771 3.58398 12.5889V6.94434C3.58415 5.92965 4.40715 5.10742 5.42188 5.10742C5.537 5.10745 5.64953 5.11839 5.75879 5.13867V4.87305C5.75888 3.8583 6.58191 3.03613 7.59668 3.03613C7.76661 3.03615 7.93073 3.06033 8.08691 3.10352C8.37027 2.4541 9.01767 2.00001 9.77148 2C10.5253 2 11.1727 2.4541 11.4561 3.10352C11.6122 3.06033 11.7764 3.03615 11.9463 3.03613C12.9611 3.03613 13.7841 3.8583 13.7842 4.87305V8.28125Z" />
</svg>

<svg xmlns="http://www.w3.org/2000/svg" width="20" height="20" fill="none" viewBox="0 0 20 20">
    <path d="M10.11 9.482V3.838a.338.338 0 0 0-.676 0v1.025l.051 4.092a.75.75 0 1 1-1.5.019l-.051-4.091v-.01a.337.337 0 1 0-.675 0V10a.75.75 0 0 1-1.5 0V6.944a.337.337 0 0 0-.675 0v5.645A3.91 3.91 0 0 0 8.995 16.5h1.393c.762 0 1.494-.303 2.033-.842l1.196-1.196c.54-.54.842-1.27.842-2.033v-.001l.002-1.398v-.005c.003-.309.122-.615.356-.85l.043-.052a.338.338 0 0 0-.52-.425 1.9 1.9 0 0 0-.554 1.328l-.002.039v.987l.001.02a.75.75 0 0 1-.75.75 2.36 2.36 0 0 0-1.667.69.75.75 0 0 1-1.06-1.06 3.85 3.85 0 0 1 1.976-1.056V4.874a.338.338 0 0 0-.668-.067l-.007.067v4.61a.75.75 0 0 1-1.5 0m3.674-1.2a1.835 1.835 0 0 1 2.176 2.862l-.001 1.286c0 1.16-.461 2.272-1.281 3.093l-1.197 1.196A4.38 4.38 0 0 1 10.388 18H8.995a5.41 5.41 0 0 1-5.411-5.411V6.944A1.838 1.838 0 0 1 5.759 5.14v-.266a1.837 1.837 0 0 1 2.328-1.77 1.838 1.838 0 0 1 3.37 0 1.836 1.836 0 0 1 2.327 1.77z"/>
</svg>
